X:35
T:Soldier's Return, The
S:Tim Eriksen, https://youtu.be/8tVlXaF7fG0
M:C|
G:Key: A
N:Good in cross-A tuning
Z:abc-transcription Josh Larios <hades@elsewhere.org>, 2020.01.14
Z:abc-copyright This transcription is licensed under a Creative Commons Attribution-ShareAlike 4.0 International License.
K:A
[P:A]y0|: AB | "A"c2 E2 E2 E2 | "D"FE FA "E"B2 AB | "A"c2 E2 "D"dc BA | "E"F2-FG "A"A2 :| 
[P:B]y0|: A2 | "A"AB cd e2-ee | "D"fe dc "E"B4 | "A"AB cd ef ed | "E"c2-cd e4 | 
 "A"AB cd e2-ee | "D"fe dc "E"B2 AB | "A"c2 E2 "D"dc BA | "E"F2-FG "A"A2 :|

